!! 00027] TT[TB
!! Eigene Aufnahme, Guangzhou, 5.5.87
!!!OTL: Qu man di
!!!ARE: Xinjiang
!! Ethnic Group: Weiwuer
!! MM,    S. 380 (Quelle S. Bandprotokoll)
!!!SCT: C0963
!!!YEM: Copyright 1995, estate of Helmut Schaffrath.
**kern
*ICvox
*Ivox
*M4/4
*k[b-e-]
*B-:
{8ff
8ff
=1
2.eee-
8fff
8eee-
=2
2.ddd}
{8gg
8aa
=3
2.bb-
8bb-
16aa
16gg
=4
2.gg
4r}
=5
{16gg
8gg
16aa
8bb-
8ccc
8bb-
16aa
16bb-
4gg
=6
16aa
8gg
16aa
8.gg
16ff
2ff}
=7
{4.ccc
16ddd
16eee-
8ddd
8eee-
8ddd
[8ggg
=8
4.ggg]
16fff
16ggg
4.fff
16eee-
16ddd
=9
1fff}
=10
{16eee-
8ddd
16ddd
16.ccc
32ddd
16ccc
16bb-
2bb-}
=11
{16gg
8gg
16aa
8bb-
8ccc
8.bb-
16aa
4gg
=12
16aa
8gg
16aa
8.gg
16ff
2ff}
=13
{4.bb-
8ccc
4.ddd
8fff
=14
4.eee-
8ddd
2ccc}
=15
{16r
8ccc
16ddd
8eee-
8fff
8.eee-
16ddd
4ccc
=16
16ddd
8ccc
16ddd
8ccc
8bb-
4bb-}
{8ff
8ff
=17
2.eee-
8fff
8eee-
=18
2.ddd}
{8gg
8aa
=19
2.bb-
8bb-
16aa
16gg
=20
2.gg
4r}
=21
{16gg
8gg
16aa
8bb-
8ccc
8bb-
16aa
16bb-
4gg
=22
16aa
8gg
16aa
8.gg
16ff
2ff}
=23
{4.ccc
16ddd
16eee-
8ddd
8eee-
8ddd
[8ggg
=24
4.ggg]
16fff
16ggg
4.fff
16eee-
16ddd
=25
1fff}
=26
{16eee-
8ddd
16ddd
16.ccc
32ddd
16ccc
16bb-
2bb-}
=27
{16gg
8gg
16aa
8bb-
8ccc
8.bb-
16aa
4gg
=28
16aa
8gg
16aa
8.gg
16ff
2ff}
=29
{4.bb-
8ccc
4.ddd
8fff
=30
4.eee-
8ddd
2ccc}
=31
{16r
8ccc
16ddd
8eee-
8fff
8.eee-
16ddd
4ccc
=32
16ddd
8ccc
16ddd
8ccc
8bb-
2bb-}
=33
{4.ddd
8eee-
2fff
=34
4.eee-
8ddd
2ccc}
=35
{16r
8ccc
16ddd
8eee-
8fff
16r
8eee-
16ddd
4ccc
=36
16ddd
8ccc
16ddd
8.ccc
16bb-
[2bb-
=37
1bb-]}
==
!!!AGN: Qingge
!! Die Saengerin Lei Huilan ist Angehoerige der Zhuang Minderheit und
!!    studiert an der Guangzhouer Musikhochschule.
!!    Aufgenommen am 5.5.87
!!    Vereinzelt Verzierungen. Vor- und Nachspiel weggelassen.
!!!ONB: ESAC (Essen Associative Code) Database: CHINA
!!!AMT: simple quadruple
!!!AIN: vox
!!!EED: Helmut Schaffrath
!!!EEV: 1.0
*-
!!!ONB: Tied note syntax fixed by Craig Sapp, 2004/05/03/
